X:1
T:Den jeg venter paa
T:Den jeg venter paa
T:National- og Selskabs-Sange (1886)
T:Arr. af Knud Henderson
T:Erik Bögh
C:Arr. af Knud Henderson
%%score [ 1 2 3 4 ]
L:1/8
Q:1/4=90
M:2/4
K:C
V:1 treble nm="Soprano"
V:2 treble nm="Alto"
V:3 treble-8 nm="Tenor"
V:4 bass nm="Bass"
V:1
"^Allegretto" e3/2 c/ G A | A G G2 | A3/2 B/ c A | A G G2 | G F D2 | A G E2 | d3/2 c/ B A | %7
w: 1.Sig mig, hvis De|el- lers kan,|Hvor- dan jeg skal|faa en Mand,|Som er net \-|Det er slet|Ik- ke saa al-|
 A G G2 | e3/2 c/ G A | A G G2 | A3/2 B/ c A | A G G2 | G F D2 | A G E2 | d3/2 c/ B A | A G G2 | %16
w: de- les let!|Vist- nok har jeg|havt en Flok|Fri- e- re; men \-|sæl- somt nok! \-|Al- le, som|Hid- til kom,|Syn- tes jeg kun|daar- ligt om.|
 D3/2 D/ D3/2 E/ | E F F2 | A3/2 G/ F E | E F F2 | G F D2 | A G E2 | g3/2 e/ c G | e3/2 d/ c2 |] %24
w: Der var ik- ke|En, der saa|Ud som den, jeg|ven- ted paa.|Hans Ge- stalt|Har jeg alt|Tænkt mig \- saa- dan|halvt om halvt.|
V:2
 G3/2 G/ E F | F E E2 | F3/2 G/ A F | F E E2 | E D B,2 | F E C2 | G3/2 ^F/ G F | ^F G G2 | %8
w: 1.Sig mig, hvis De|el- lers kan,|Hvor- dan jeg skal|faa en Mand,|Som er net \-|Det er slet|Ik- ke saa al-|de- les let!|
 G3/2 G/ E =F | F E E2 | F3/2 G/ A F | F E E2 | E D B,2 | F E C2 | G3/2 ^F/ G F | ^F G G2 | %16
w: Vist- nok har jeg|havt en Flok|Fri- e- re; men \-|sæl- somt nok! \-|Al- le, som|Hid- til kom,|Syn- tes jeg kun|daar- ligt om.|
 B,3/2 B,/ B,3/2 C/ | C D D2 | F3/2 E/ D ^C | ^C D D2 | E D B,2 | F E C2 | G3/2 G/ G G | %23
w: Der var ik- ke|En, der saa|Ud som den, jeg|ven- ted paa.|Hans Ge- stalt|Har jeg alt|Tænkt mig \- saa- dan|
 c3/2 B/ c2 |] %24
w: halvt om halvt.|
V:3
 c3/2 e/ c c | c c c2 | c3/2 d/ c c | c c c2 | B A G2 | c c c2 | B3/2 A/ B c | c B B2 | %8
w: 1.Sig mig, hvis De|el- lers kan,|Hvor- dan jeg skal|faa en Mand,|Som er net \-|Det er slet|Ik- ke saa al-|de- les let!|
 c3/2 e/ c c | c c c2 | c3/2 d/ c c | c c c2 | B A G2 | c c c2 | B3/2 A/ B c | c B B2 | %16
w: Vist- nok har jeg|havt en Flok|Fri- e- re; men \-|sæl- somt nok! \-|Al- le, som|Hid- til kom,|Syn- tes jeg kun|daar- ligt om.|
 G3/2 G/ G3/2 G/ | G B A2 | A3/2 A/ A A | A A A2 | A A B2 | c c c2 | B3/2 c/ e e | g3/2 f/ e2 |] %24
w: Der var ik- ke|En, der saa|Ud som den, jeg|ven- ted paa.|Hans Ge- stalt|Har jeg alt|Tænkt mig \- saa- dan|halvt om halvt.|
V:4
 C,3/2 C,/ C, C, | C, C, C,2 | F,3/2 F,/ F, F, | C, C, C,2 | E, F, G,2 | C, C, C,2 | %6
w: 1.Sig mig, hvis De|el- lers kan,|Hvor- dan jeg skal|faa en Mand,|Som er net \-|Det er slet|
 D,3/2 D,/ D, D, | D, D, G,,2 | C,3/2 C,/ C, C, | C, C, C,2 | F,3/2 F,/ F, F, | C, C, C,2 | %12
w: Ik- ke saa al-|de- les let!|Vist- nok har jeg|havt en Flok|Fri- e- re; men \-|sæl- somt nok! \-|
 E, F, G,2 | C, C, C,2 | D,3/2 D,/ D, D, | D, D, G,,2 | G,3/2 G,/ G,3/2 G,/ | D, D, D,2 | %18
w: Al- le, som|Hid- til kom,|Syn- tes jeg kun|daar- ligt om.|Der var ik- ke|En, der saa|
 A,,3/2 A,,/ A,, A,, | A,, D, D,2 | ^C, D, G,,2 | C, E, G,2 | G,3/2 G,/ G, G, | G,3/2 G,/ C,2 |] %24
w: Ud som den, jeg|ven- ted paa.|Hans Ge- stalt|Har jeg alt|Tænkt mig \- saa- dan|halvt om halvt.|

